X: 61
M:2/4
L:1/16
K:F
(ucB)|AFc"0"A fcaf|gabg fedc|dBAB G"4"AFG|EFDE .C2(cB)|
|:uc2|gabg "0"ecde|fefc agaf|gabg ecde|fefd cABG|


